X:2010
T:Blårocken
R:Polska
O:Bingsjö, Dalarna
Z: Qaryn Eng - 2011-06-02
M:3/4
L:1/8
K:D
|: AA dc B/2A/2B/2c/2 | dc BA/2^G/2 A2 | A<d- d/2e/2d/2^c/2 df | fe/2f/2 e4:|
|: ga/2g/2 fe dc | B/2A/2B/2c/2 dB A2 | B/2A/2G/2A/2 BA G2 | Bd/2B/2 AG FE/2F/2 | A>A B/2c/2B/2A/2 Bd | c/2d/2e/2c/2 d4 :|]
(:musicend:)
(:music:)
